svgs/sharp-regular/shield-cross.svg

<svg xmlns="http://www.w3.org/2000/svg" viewBox="0 0 512 512"><!--! Font Awesome Pro 6.6.0 by @fontawesome - https://fontawesome.com License - https://fontawesome.com/license (Commercial License) Copyright 2024 Fonticons, Inc. --><path d="M64.1 126L256 51.5 448 126c1 43.5-6.9 106.9-33.8 168.8C385.9 359.7 337.1 422.4 256 459.6c-81.1-37.1-129.9-99.9-158.1-164.8C71 232.9 63.1 169.5 64.1 126zm431.4-13l-1.2-20.5L475.1 85 267.6 4.5 256 0 244.4 4.5 36.9 85 17.8 92.5 16.6 113c-2.9 49.9 4.9 126.3 37.3 200.9c32.7 75.2 91 150 189.4 192.6L256 512l12.7-5.5c98.4-42.6 156.7-117.3 189.4-192.6c32.4-74.7 40.2-151 37.3-200.9zM280 120l0-24-48 0 0 24 0 48-96 0-24 0 0 48 24 0 96 0 0 176 0 24 48 0 0-24 0-176 96 0 24 0 0-48-24 0-96 0 0-48z"/></svg>

<svg xmlns="http://www.w3.org/2000/svg" viewBox="0 0 512 512"><!--! Font Awesome Pro 6.4.0 by @fontawesome - https://fontawesome.com License - https://fontawesome.com/license (Commercial License) Copyright 2023 Fonticons, Inc. --><path d="M64.1 126L256 51.5 448 126c1 43.5-6.9 106.9-33.8 168.8C385.9 359.7 337.1 422.4 256 459.6c-81.1-37.1-129.9-99.8-158.1-164.8C71 232.9 63.1 169.5 64.1 126zm431.4-13l-1.2-20.5L475.1 85 267.6 4.5 256 0 244.4 4.5 36.9 85 17.8 92.5 16.6 113c-2.9 49.9 4.9 126.3 37.3 200.9c32.7 75.2 91 150 189.4 192.6L256 512l12.7-5.5c98.4-42.6 156.7-117.3 189.4-192.6c32.4-74.7 40.2-151 37.3-200.9zM280 120V96H232v24 48H136 112v48h24 96V392v24h48V392 216h96 24V168H376 280V120z"/></svg>
